icon-svg/sprinkler.svg

<?xml version="1.0" encoding="UTF-8"?>
<svg width="33px" height="32px" fill="#44739e" viewBox="0 0 32 32" version="1.1" xmlns="http://www.w3.org/2000/svg" xmlns:xlink="http://www.w3.org/1999/xlink">
             <path d="M 11.762099,30.450461 C 11.130999,30.128475 10.75258,29.596437 10.699513,28.95652 L 10.672021,28.625004 H 16 21.327979 L 21.300487,28.95652 C 21.246786,29.604084 20.840682,30.166157 20.211154,30.464224 L 19.871583,30.625004 15.982666,30.622336 12.09375,30.619669 Z M 10.3125,27.562663 C 9.64397,27.48928 9.0181063,27.183762 8.440135,26.648662 7.7133581,25.975795 7.4168181,25.322884 7.3365156,24.218753 7.2147169,22.544068 8.3045844,21.015098 9.96875,20.526003 10.222958,20.451291 10.665862,20.404188 11.34375,20.379771 L 12.34375,20.343753 12.360754,19.171877 12.377758,18.000002 H 16 19.622242 L 19.639246,19.171877 19.65625,20.343753 20.6875,20.381863 C 21.577328,20.414746 21.785842,20.442765 22.207989,20.586179 22.840876,20.801186 23.255373,21.071285 23.714419,21.567816 24.381854,22.289753 24.738364,23.284879 24.670809,24.237391 24.634674,24.746898 24.464542,25.468174 24.343504,25.625003 24.303709,25.676566 24.196499,25.849607 24.105259,26.00954 23.864756,26.43111 23.237761,26.968855 22.642951,27.263697 22.226999,27.469879 22.031423,27.527522 21.611701,27.567636 20.972486,27.628728 10.873868,27.624283 10.3125,27.562663 Z M 10.346591,25.659094 10.5,25.505685 V 24.022497 C 10.5,22.585692 10.49575,22.534785 10.364106,22.394656 10.188382,22.207607 9.9709637,22.210857 9.7784094,22.403412 L 9.625,22.556821 V 24.031396 25.505972 L 9.7903763,25.659238 C 9.9996488,25.853184 10.15254,25.853145 10.346591,25.659094 Z M 12.317308,25.629811 12.5,25.447119 V 24.00197 22.556821 L 12.346591,22.403412 C 12.159829,22.21665 11.94463,22.207092 11.761785,22.377438 11.628294,22.501803 11.625,22.541581 11.625,24.029151 V 25.553431 L 11.789679,25.682967 C 12.009396,25.855796 12.100501,25.846618 12.317308,25.629811 Z M 14.272821,25.682967 14.4375,25.553431 V 24.04637 C 14.4375,22.585055 14.433375,22.534918 14.301606,22.394656 14.136396,22.218799 13.938451,22.20987 13.741299,22.369382 13.594821,22.487895 13.593613,22.499467 13.574903,23.964718 L 13.556057,25.440675 13.741971,25.626589 C 13.962042,25.846661 14.052504,25.856268 14.272821,25.682967 Z M 16.284091,25.659094 16.4375,25.505685 V 24.022497 C 16.4375,22.585692 16.43325,22.534785 16.301606,22.394656 16.131021,22.213077 15.894816,22.209597 15.707153,22.385897 15.563783,22.520587 15.5625,22.535028 15.5625,24.013882 V 25.505972 L 15.727876,25.659238 C 15.937149,25.853184 16.09004,25.853145 16.284091,25.659094 Z M 18.272828,25.633794 18.444042,25.455085 18.425146,23.983971 C 18.407887,22.64035 18.395932,22.501468 18.287188,22.38143 18.133674,22.211973 17.890292,22.213847 17.707153,22.385897 17.563738,22.520629 17.5625,22.534638 17.5625,24.022494 17.5625,25.477281 17.566658,25.527623 17.698394,25.66785 17.880025,25.861186 18.065507,25.85019 18.272828,25.633794 Z M 20.210321,25.682967 20.375,25.553431 V 24.029151 C 20.375,22.541581 20.371706,22.501803 20.238215,22.377438 20.054431,22.206217 19.839961,22.21686 19.650201,22.40662 L 19.493583,22.563238 19.512417,24.037136 19.53125,25.511034 19.70661,25.661769 C 19.920952,25.84601 19.998876,25.849289 20.210321,25.682967 Z M 22.209624,25.659238 22.375,25.505972 V 24.022641 C 22.375,22.585688 22.370751,22.534787 22.239106,22.394656 22.068521,22.213077 21.832316,22.209597 21.644653,22.385897 21.501161,22.520702 21.5,22.533954 21.5,24.037611 V 25.553431 L 21.664679,25.682967 C 21.879565,25.851996 22.007651,25.846419 22.209624,25.659238 Z M 3.5846907,26.435035 C 3.2492533,26.368646 2.7263182,26.104595 2.3903569,25.831965 2.0094514,25.522864 1.6809677,24.829471 1.6392543,24.246471 1.5988999,23.682465 1.7459217,23.122392 2.0631859,22.631523 2.3295138,22.219462 2.5475462,22.036872 3.1075927,21.756893 L 3.4964354,21.562503 H 5.2803674 7.0642994 L 6.8797012,21.92819 C 6.4866681,22.706784 6.4188606,23.012091 6.4195612,24.000003 6.420055,24.695881 6.445145,24.976922 6.5276456,25.210684 6.5867388,25.378121 6.6458194,25.570843 6.6589369,25.638954 6.6720537,25.707066 6.7682219,25.914177 6.8726431,26.099201 6.9770644,26.284226 7.0625,26.450098 7.0625,26.467806 7.0625,26.520717 3.8653913,26.490591 3.5846907,26.435035 Z M 24.9375,26.480183 C 24.9375,26.46369 25.021875,26.289797 25.125,26.093753 25.228125,25.897709 25.3125,25.702299 25.3125,25.659509 25.3125,25.616718 25.353387,25.499747 25.403361,25.399573 25.549869,25.105889 25.643846,24.328359 25.602736,23.750003 25.555256,23.08203 25.429711,22.593137 25.157356,22.015628 L 24.943661,21.562503 H 26.727912 28.512163 L 29.008049,21.820491 C 29.576769,22.116372 29.852804,22.403148 30.143378,23.000003 30.324712,23.372472 30.341266,23.458223 30.342454,24.031253 30.343691,24.627494 30.332977,24.678339 30.109643,25.136224 29.838284,25.692569 29.560924,25.951567 28.902703,26.26326 L 28.46875,26.468753 26.703125,26.489461 C 25.732031,26.50085 24.9375,26.496675 24.9375,26.480183 Z M 11.90625,16.490878 C 11.080274,15.419968 10.92091,15.070539 11.165661,14.867029 11.243016,14.802709 11.598704,14.773434 12.587536,14.750002 L 13.90625,14.718752 V 13.625002 12.531252 L 13.044485,12.500002 C 12.062891,12.464406 12.064956,12.465552 12.063457,11.955471 12.061274,11.212536 12.510921,10.531372 13.240838,10.171872 L 13.653248,9.9687512 15.97905,9.9502962 18.304852,9.9318412 18.688921,10.125719 C 19.204914,10.386191 19.580632,10.745417 19.751923,11.142061 19.906687,11.500435 19.982292,12.22461 19.880645,12.375002 19.831339,12.447952 19.626084,12.475685 18.955515,12.500002 L 18.09375,12.531252 V 13.625002 14.718752 L 19.412464,14.750002 C 20.401296,14.773434 20.756984,14.802709 20.834339,14.867029 21.079278,15.070695 20.917801,15.424524 20.09375,16.489805 L 19.65625,17.055377 16,17.056746 12.34375,17.058115 Z M 19.653409,9.4715918 C 19.488448,9.3066312 19.460104,9.1288299 19.566944,8.9291974 19.649849,8.774288 20.170844,8.4375011 20.327577,8.4375011 20.48151,8.4375011 20.75,8.7123861 20.75,8.8699855 20.75,9.1183061 20.183932,9.6250012 19.906513,9.6250012 19.851681,9.6250012 19.737784,9.5559668 19.653409,9.4715918 Z M 11.740011,9.3736374 C 11.409102,9.1988236 11.231727,8.9507424 11.276736,8.7256942 11.328252,8.4681161 11.424394,8.375001 11.638832,8.375001 12.250573,8.375001 12.727351,9.0226505 12.375,9.3750012 12.219761,9.5302399 12.035698,9.5298443 11.740011,9.3736374 Z M 17.930071,8.6245817 C 17.874423,8.5920667 17.795197,8.4841173 17.754016,8.3846948 17.689977,8.2300942 17.69893,8.1618229 17.815857,7.913071 17.965062,7.5956503 18.198974,7.3750009 18.386269,7.3750009 18.545401,7.3750009 18.8125,7.6489422 18.8125,7.8121497 18.8125,8.0052429 18.589578,8.4071292 18.399565,8.5565929 18.219455,8.698268 18.088611,8.7172155 17.930071,8.6245817 Z M 13.607091,8.4993292 C 13.424519,8.3557179 13.229029,7.8974685 13.260219,7.6862253 13.290717,7.4796753 13.575592,7.286549 13.775691,7.3367709 13.972125,7.3860728 14.241598,7.7747978 14.29119,8.0803985 14.321034,8.2643035 14.299215,8.3314679 14.166524,8.4641592 13.973011,8.6576723 13.820575,8.6672555 13.607091,8.4993292 Z M 21.3125,8.3941273 C 21.160601,8.3398398 21.0625,8.1766985 21.0625,7.9783779 21.0625,7.6641353 21.812951,7.0608653 22.200635,7.0634578 22.393701,7.064749 22.480492,7.1280553 22.553899,7.3211297 22.661958,7.605346 22.478804,7.8583541 21.878389,8.2542754 21.605241,8.4343929 21.498782,8.4607029 21.3125,8.3941273 Z M 10.090361,8.1186885 C 9.92035,8.012091 9.7039062,7.8521416 9.609375,7.7632447 9.2838856,7.4571559 9.4324331,6.9375009 9.8454206,6.9375009 9.9986888,6.9375009 10.446964,7.2129678 10.734375,7.4837672 10.988334,7.7230478 11.018048,8.0614948 10.798593,8.2152073 10.595456,8.3574898 10.436724,8.3358579 10.090361,8.1186885 Z M 15.755023,8.203126 C 15.522028,8.0126991 15.503608,7.3178215 15.725669,7.0957603 15.850189,6.9712402 16.213765,6.9726946 16.339286,7.0982153 16.410807,7.1697371 16.4375,7.3216484 16.4375,7.657171 16.4375,8.0624379 16.420775,8.1296279 16.298593,8.2152073 16.116438,8.3427935 15.920586,8.3384404 15.755023,8.203126 Z M 18.715909,6.9715915 C 18.521129,6.7768115 18.52293,6.637514 18.725466,6.232298 19.049832,5.5833383 19.356759,5.4135774 19.659091,5.7159098 19.856667,5.9134857 19.852422,5.9981829 19.621754,6.4610196 19.299906,7.1068065 19.012895,7.2685778 18.715909,6.9715915 Z M 12.795791,6.9943884 C 12.653166,6.9113484 12.25,6.1120121 12.25,5.9122753 12.25,5.6082746 12.635666,5.4107098 12.896053,5.581322 13.050587,5.6825767 13.5,6.4797477 13.5,6.6526065 13.5,6.8046177 13.215066,7.0627909 13.049716,7.0606003 12.970809,7.0595553 12.856544,7.0297596 12.795791,6.9943884 Z M 23.035714,6.9017865 C 22.911384,6.7774558 22.90895,6.4435752 23.031103,6.269177 23.170243,6.0705263 23.866891,5.6250007 24.038372,5.6250007 24.37599,5.6250007 24.550412,6.0609825 24.33553,6.3677702 24.18458,6.5832814 23.506831,7.0000009 23.307274,7.0000009 23.211934,7.0000009 23.089732,6.9558046 23.035714,6.9017865 Z M 8.375,6.8160477 C 8.2546875,6.7522865 8.0226563,6.5823896 7.859375,6.4384983 7.616565,6.2245221 7.5625,6.1388204 7.5625,5.9679034 7.5625,5.7333637 7.6828012,5.581748 7.9151762,5.5234256 8.036325,5.4930192 8.1669781,5.5493234 8.4943875,5.7730323 9.0593069,6.1590245 9.2182119,6.5317889 8.9375,6.8125009 8.7843388,6.9656621 8.6588069,6.966454 8.375,6.8160477 Z M 15.742041,5.7561232 C 15.614117,5.652537 15.592262,5.5718269 15.572138,5.128673 15.544194,4.5133431 15.599847,4.0965817 15.726932,3.9694972 15.850391,3.8460385 16.214319,3.8482479 16.339286,3.9732148 16.418035,4.0519641 16.4375,4.2253793 16.4375,4.8482149 16.4375,5.5416674 16.42409,5.6384106 16.3125,5.7500007 16.155133,5.9073674 15.931779,5.9097646 15.742041,5.7561232 Z M 24.903409,5.4715916 C 24.725614,5.293796 24.713938,5.1885288 24.844098,4.9368275 24.968921,4.6954466 25.452148,4.4119396 25.652879,4.4623197 26.189454,4.5969915 26.080671,5.2307906 25.473662,5.50648 25.140823,5.657648 25.086119,5.6543011 24.903409,5.4715916 Z M 6.3647625,5.2940991 C 6.0306654,5.0392748 5.9352476,4.8088379 6.0665351,4.573871 6.2415477,4.2606487 6.7167031,4.3344584 7.0627875,4.728627 7.2836181,4.9801394 7.2961513,5.1119716 7.1204637,5.335322 6.9413219,5.5630643 6.7001512,5.5499087 6.3647625,5.2940991 Z M 19.715909,5.1590916 C 19.511123,4.9543053 19.521156,4.8485185 19.796875,4.3054155 20.066024,3.7752535 20.256396,3.6518594 20.551129,3.8165277 20.790702,3.9503776 20.805681,4.2692756 20.592184,4.690592 20.281608,5.303483 20.007078,5.4502604 19.715909,5.1590916 Z M 11.800509,5.128984 C 11.616315,4.9840962 11.25,4.3187206 11.25,4.129036 11.25,3.9622157 11.515193,3.6875005 11.676231,3.6875005 11.878681,3.6875005 12.091091,3.9087222 12.299966,4.3371126 12.54032,4.830065 12.544531,4.8986516 12.346591,5.0965916 12.161716,5.281467 12.006096,5.290698 11.800509,5.128984 Z M 20.715909,3.3465914 C 20.529592,3.1602746 20.521575,2.9502406 20.688304,2.6234245 20.906692,2.1953486 21.2585,2.0799289 21.526879,2.3483084 21.666497,2.4879258 21.648648,2.7074888 21.468834,3.062334 21.235232,3.5233266 20.986536,3.6172184 20.715909,3.3465914 Z M 10.82557,3.3396203 C 10.641556,3.2107317 10.4375,2.8034142 10.4375,2.5649902 10.4375,2.3653941 10.623089,2.1250003 10.777181,2.1250003 10.997362,2.1250003 11.172711,2.2593286 11.330164,2.5486209 11.539942,2.9340525 11.543365,3.0873172 11.346591,3.2840913 11.16902,3.4616624 11.022156,3.4773147 10.82557,3.3396203 Z M 15.827216,2.6865623 C 15.453885,2.5330283 15.486684,1.5294968 15.868999,1.4081547 16.043776,1.3526827 16.306274,1.4340856 16.376649,1.5655806 16.46433,1.729415 16.451917,2.4572357 16.359375,2.5783839 16.258931,2.7098778 16.007963,2.760895 15.827216,2.6865623 Z"/>

</svg>

<svg xmlns="http://www.w3.org/2000/svg" fill="#44739e" viewBox="0 0 24 24"><path d="M11.7621 30.4505c-.6311-.322-1.0095-.854-1.0626-1.494l-.0275-.3315h10.656l-.0275.3315c-.0537.6476-.4598 1.2097-1.0893 1.5077l-.3396.1608-3.889-.0027-3.8888-.0026Zm-1.4496-2.8878c-.6685-.0734-1.2944-.379-1.8724-.914-.7267-.673-1.0233-1.3258-1.1036-2.43-.1218-1.6746.968-3.2036 2.6323-3.6927.2542-.0747.697-.1218 1.375-.1462l1-.036.017-1.172.017-1.1718h7.2444l.017 1.1719.017 1.1719 1.0313.038c.8898.033 1.0983.061 1.5205.2044.6329.215 1.0474.485 1.5064.9816.6675.722 1.024 1.717.9564 2.6696-.0361.5095-.2063 1.2308-.3273 1.3876-.0398.0516-.147.2246-.2382.3845-.2405.4216-.8675.9594-1.4623 1.2542-.416.2062-.6116.2638-1.0313.304-.6392.061-10.7378.0566-11.2992-.005m.034-1.9036.1535-.1534v-1.4832c0-1.4368-.0043-1.4877-.1359-1.6278-.1757-.187-.3931-.1838-.5857.0087l-.1534.1534v2.9492l.1654.1532c.2092.194.3621.194.5562-.0001m1.9708-.0293.1827-.1827v-2.8903l-.1534-.1534c-.1868-.1867-.402-.1963-.5848-.026-.1335.1244-.1368.1642-.1368 1.6518v1.5242l.1647.1296c.2197.1728.3108.1636.5276-.0532m1.9555.0532.1647-.1296v-1.507c0-1.4613-.0041-1.5115-.1359-1.6517-.1652-.1759-.3631-.1848-.5603-.0253-.1465.1185-.1477.13-.1664 1.5953l-.0188 1.476.1859.1859c.22.22.3105.2297.5308.0564m2.0113-.024.1534-.1533v-1.4832c0-1.4368-.0042-1.4877-.1359-1.6278-.1706-.1816-.4068-.1851-.5944-.0088-.1434.1347-.1447.1491-.1447 1.628v1.492l.1654.1533c.2092.194.3621.194.5562-.0001m1.9887-.0252.1712-.1787-.0189-1.4711c-.0172-1.3437-.0292-1.4825-.138-1.6026-.1534-.1694-.3968-.1676-.58.0045-.1434.1347-.1446.1487-.1446 1.6366 0 1.4548.0042 1.5051.1359 1.6454.1816.1933.3671.1823.5744-.0341m1.9375.0492.1647-.1296v-1.5242c0-1.4876-.0033-1.5274-.1368-1.6518-.1838-.1712-.3982-.1605-.588.0292l-.1566.1566.0188 1.474.0189 1.4738.1753.1508c.2144.1842.2923.1875.5037.0212m1.9993-.0238.1654-.1532v-1.4834c0-1.437-.0042-1.4878-.1359-1.628-.1706-.1815-.4068-.185-.5944-.0087-.1435.1348-.1447.148-.1447 1.6517v1.5158l.1647.1296c.2149.169.343.1634.545-.0238m-18.625.7758c-.3353-.0664-.8583-.3304-1.1942-.603-.381-.3091-.7094-1.0025-.7511-1.5855-.0404-.564.1066-1.1241.4239-1.615.2663-.412.4843-.5946 1.0444-.8746l.3888-.1944h3.5679l-.1846.3657c-.393.7786-.4608 1.0839-.4601 2.0718.0005.6959.0255.977.108 1.2107.0591.1674.1182.3601.1313.4283.0132.068.1093.2752.2137.4602s.1899.3509.1899.3686c0 .053-3.1971.0228-3.4778-.0328m21.3529.0452c0-.0165.0844-.1904.1875-.3864s.1875-.3915.1875-.4343.0409-.1598.0909-.26c.1465-.2936.2404-1.0711.1993-1.6495-.0474-.668-.173-1.1569-.4453-1.7344l-.2137-.4531h3.5685l.4958.258c.5688.2959.8448.5826 1.1354 1.1795.1813.3725.1979.4582.199 1.0313.0013.5962-.0094.647-.2328 1.105-.2713.5563-.5487.8153-1.2069 1.127l-.434.2055-1.7656.0207c-.971.0114-1.7656.0072-1.7656-.0093M11.9066 16.491c-.826-1.071-.9854-1.4204-.7406-1.6239.0773-.0643.433-.0936 1.4218-.117l1.3187-.0312v-2.1875l-.8617-.0313c-.9816-.0356-.9795-.0344-.981-.5445-.0022-.743.4474-1.4241 1.1773-1.7836l.4124-.2031 2.3259-.0185 2.3258-.0185.384.194c.516.2604.8917.6196 1.063 1.0163.1548.3583.2304 1.0825.1287 1.2329-.0493.073-.2545.1007-.925.125l-.8619.0313v2.1875l1.3188.0312c.9888.0234 1.3445.0527 1.4218.117.245.2037.0835.5575-.7405 1.6228l-.4376.5656L16 17.0567l-3.6562.0014Zm7.7471-7.0193c-.165-.165-.1933-.3428-.0865-.5424.083-.155.604-.4917.7607-.4917.154 0 .4224.2749.4224.4325 0 .2483-.566.755-.8435.755-.0548 0-.1687-.069-.253-.1534m-7.9134-.098c-.3309-.1748-.5083-.4229-.4633-.648.0516-.2575.1477-.3506.3621-.3506.6118 0 1.0886.6477.7362 1-.1552.1552-.3393.1548-.635-.0014m6.19-.749c-.0556-.0325-.1348-.1405-.176-.24-.064-.1545-.055-.2228.0619-.4715.1492-.3174.383-.5381.5704-.5381.1591 0 .4262.274.4262.4371 0 .1931-.223.595-.413.7445-.18.1417-.3109.1606-.4694.068m-4.323-.1253c-.1825-.1436-.378-.6018-.3468-.813.0305-.2066.3154-.3998.5155-.3495.1964.0493.4659.438.5155.7436.0298.1839.008.251-.1247.3838-.1935.1935-.346.203-.5594.0351m7.7055-.1052c-.1519-.0543-.25-.2174-.25-.4157 0-.3143.7505-.9175 1.1381-.915.1931.0013.2799.0647.3533.2577.108.2842-.0751.5373-.6755.9332-.2732.18-.3796.2064-.5659.1398M10.091 8.1188c-.17-.1066-.3865-.2666-.481-.3555-.3255-.306-.177-.8257.236-.8257.1533 0 .6016.2755.889.5463.254.2392.2836.5777.0642.7314-.2031.1423-.3619.1207-.7082-.0965m5.6646.0844c-.233-.1904-.2514-.8853-.0293-1.1073.1245-.1246.488-.1231.6136.0024.0715.0715.0982.2234.0982.559 0 .4052-.0167.4724-.139.558-.182.1276-.378.1232-.5435-.012m2.961-1.2315c-.1949-.1948-.193-.334.0095-.7393.3243-.649.6313-.8187.9336-.5164.1976.1976.1933.2823-.0373.7451-.3219.6458-.609.8076-.9059.5106m-5.9202.0228c-.1426-.083-.5458-.8824-.5458-1.0821 0-.304.3857-.5016.646-.331.1546.1013.604.8984.604 1.0713 0 .152-.285.4102-.4503.408-.0789-.001-.1932-.0308-.254-.0662m10.24-.0926c-.1244-.1243-.1268-.4582-.0047-.6326.1391-.1987.8358-.6442 1.0073-.6442.3376 0 .512.436.2971.7428-.151.2155-.8287.6322-1.0282.6322-.0954 0-.2176-.0442-.2716-.0982M8.375 6.816c-.1203-.0637-.3523-.2336-.5156-.3775-.2428-.214-.2969-.2997-.2969-.4706 0-.2345.1203-.3862.3527-.4445.1211-.0304.2518.026.5792.2496.565.386.7238.7588.4431 1.0395-.1532.1532-.2787.154-.5625.0035m7.367-1.0599c-.1279-.1036-.1497-.1843-.1699-.6274-.028-.6154.0277-1.0321.1548-1.1592.1235-.1235.4874-.1213.6124.0037.0787.0788.0982.2522.0982.875 0 .6935-.0134.7902-.125.9018-.1574.1574-.3807.1598-.5705.0061m9.1614-.2845c-.1778-.1778-.1895-.283-.0593-.5348.1248-.2414.608-.5249.8088-.4745.5366.1347.4278.7685-.1792 1.0442-.3329.1511-.3876.1478-.5703-.035M6.3648 5.294c-.3341-.2548-.4296-.4853-.2983-.7202.175-.3133.6502-.2394.9963.1547.2208.2515.2334.3834.0577.6067-.1792.2278-.4203.2146-.7557-.0412m13.3511-.135c-.2048-.2048-.1947-.3106.081-.8537.2691-.5301.4595-.6535.7542-.4889.2396.1339.2546.4528.041.874-.3105.613-.585.7598-.8762.4686m-7.9154-.0301c-.1842-.1449-.5505-.8103-.5505-1 0-.1668.2652-.4415.4262-.4415.2025 0 .4149.2212.6238.6496.2403.493.2445.5616.0466.7595-.1849.1849-.3405.1941-.546.0324m8.9154-1.7824c-.1863-.1863-.1943-.3964-.0276-.7232.2184-.428.5702-.5435.8386-.275.1396.1395.1217.359-.058.714-.2337.461-.4824.5548-.753.2842m-9.8903-.007c-.184-.1289-.3881-.5362-.3881-.7746 0-.1996.1856-.44.3397-.44.2202 0 .3955.1343.553.4236.2097.3855.2132.5387.0164.7355-.1776.1776-.3244.1932-.521.0555m5.0016-.653c-.3733-.1536-.3405-1.1571.0418-1.2784.1748-.0555.4373.0259.5076.1574.0877.1638.0753.8916-.0172 1.0128-.1005.1315-.3514.1825-.5322.1082"/></svg>
